source/images/glyphs/email-dark-theme.svg

<?xml version="1.0" encoding="UTF-8"?>
<svg width="24px" height="24px" viewBox="0 0 24 24" version="1.1" xmlns="http://www.w3.org/2000/svg" xmlns:xlink="http://www.w3.org/1999/xlink">
    <!-- Generator: Sketch 54.1 (76490) - https://sketchapp.com -->
    <title>24px - Mail - White</title>
    <desc>Created with Sketch.</desc>
    <g id="24px---Mail---White" stroke="none" stroke-width="1" fill="none" fill-rule="evenodd">
        <g id="Iconography-/-Small-/-Mail-/-White" fill="#FFFFFF">
            <g id="Group-16">
                <path d="M21.5889137,4.08811405 C21.4743245,4.13972298 21.3676158,4.21393801 21.2756287,4.31058998 L12.7366833,13.2825616 C12.7244439,13.2954217 12.7118643,13.3079535 12.6989577,13.3201438 C12.297451,13.6993678 11.6645438,13.681304 11.2853198,13.2797974 L2.81649415,4.31335426 C2.71431224,4.20516827 2.59371208,4.12482151 2.46418335,4.07258483 C2.63471401,4.02528014 2.81440476,4 3,4 L21,4 C21.2049677,4 21.402734,4.03083307 21.5889137,4.08811405 Z M22.9118898,5.41109871 C22.9691683,5.59727476 23,5.79503682 23,6 L23,18 C23,18.2049642 22.969168,18.4027273 22.9118889,18.5889042 C22.8635323,18.4815896 22.7952716,18.381058 22.7071068,18.2928932 L16.7071068,12.2928932 C16.6603289,12.2461154 16.6100697,12.2049407 16.5571632,12.1693691 L22.7243713,5.68941002 C22.8043163,5.60541087 22.8667854,5.51114354 22.9118898,5.41109871 Z M21.5889042,19.9118889 C21.4027273,19.969168 21.2049642,20 21,20 L3,20 C2.79503576,20 2.59727273,19.969168 2.41109584,19.9118889 C2.51841039,19.8635323 2.61894199,19.7952716 2.70710678,19.7071068 L8.70710678,13.7071068 C8.7476441,13.6665695 8.78397355,13.6234177 8.81609513,13.5781943 L9.83133543,14.6530888 C10.9690073,15.8576089 12.8677291,15.9118001 14.0722492,14.7741281 C14.1109689,14.7375573 14.1487079,14.6999618 14.1854259,14.6613817 L15.1979646,13.5974952 C15.2265186,13.635724 15.2581614,13.672375 15.2928932,13.7071068 L21.2928932,19.7071068 C21.381058,19.7952716 21.4815896,19.8635323 21.5889042,19.9118889 Z M1.08811112,18.5889042 C1.03083202,18.4027273 1,18.2049642 1,18 L1,6 C1,5.74854413 1.04640549,5.50792684 1.13111964,5.28624496 C1.17436246,5.43144581 1.25137637,5.56898225 1.3625098,5.68664574 L7.46925064,12.1522109 C7.40661854,12.1914993 7.34739307,12.2383934 7.29289322,12.2928932 L1.29289322,18.2928932 C1.20472843,18.381058 1.13646773,18.4815896 1.08811112,18.5889042 Z" id="Combined-Shape"></path>
            </g>
        </g>
    </g>
</svg>

<svg width="24" height="24" xmlns="http://www.w3.org/2000/svg"><path d="M21.589 4.088a.997.997 0 0 0-.313.223l-8.54 8.972a1 1 0 0 1-1.45-.003l-8.47-8.967a.996.996 0 0 0-.352-.24C2.634 4.025 2.814 4 3 4h18a2 2 0 0 1 .589.088zm1.323 1.323A2 2 0 0 1 23 6v12a2 2 0 0 1-.088.589.998.998 0 0 0-.205-.296l-6-6a1.005 1.005 0 0 0-.15-.124l6.167-6.48a.998.998 0 0 0 .188-.278zm-1.323 14.5A2 2 0 0 1 21 20H3a2 2 0 0 1-.589-.088.998.998 0 0 0 .296-.205l6-6c.04-.04.077-.084.11-.129l1.014 1.075a3 3 0 0 0 4.354.008l1.013-1.064c.029.039.06.075.095.11l6 6a.998.998 0 0 0 .296.205zm-20.5-1.322A2 2 0 0 1 1 18V6c0-.251.046-.492.131-.714.043.145.12.283.232.4l6.106 6.466c-.062.04-.122.086-.176.14l-6 6a.998.998 0 0 0-.205.297z" fill="#FFF" fill-rule="evenodd"/></svg>
